core/assets/icons/phone.filled.svg

<svg width="24" height="24" viewBox="0 0 24 24" xmlns="http://www.w3.org/2000/svg"><g id="phone=filled"><path id="Vector" d="M21 16.42V19.956C21.0001 20.2092 20.9042 20.453 20.7316 20.6382C20.559 20.8234 20.3226 20.9363 20.07 20.954C19.633 20.984 19.276 21 19 21C10.163 21 3 13.837 3 5C3 4.724 3.015 4.367 3.046 3.93C3.06372 3.67744 3.17658 3.44101 3.3618 3.26841C3.54703 3.09581 3.79082 2.99989 4.044 3H7.58C7.70404 2.99987 7.8237 3.04586 7.91573 3.12902C8.00776 3.21218 8.0656 3.32658 8.078 3.45C8.101 3.68 8.122 3.863 8.142 4.002C8.34073 5.38892 8.748 6.73783 9.35 8.003C9.445 8.203 9.383 8.442 9.203 8.57L7.045 10.112C8.36445 13.1865 10.8145 15.6365 13.889 16.956L15.429 14.802C15.4919 14.714 15.5838 14.6509 15.6885 14.6237C15.7932 14.5964 15.9042 14.6068 16.002 14.653C17.267 15.2539 18.6156 15.6601 20.002 15.858C20.141 15.878 20.324 15.9 20.552 15.922C20.6752 15.9346 20.7894 15.9926 20.8724 16.0846C20.9553 16.1766 21.0012 16.2961 21.001 16.42H21Z"/></g></svg>

<svg xmlns="http://www.w3.org/2000/svg" width="24" height="24" fill="none"><path fill="#191C22" d="M21 16.42v3.536a1 1 0 0 1-.93.998c-.437.03-.794.046-1.07.046-8.837 0-16-7.163-16-16 0-.276.015-.633.046-1.07A1 1 0 0 1 4.044 3H7.58a.5.5 0 0 1 .498.45c.023.23.044.413.064.552A13.9 13.9 0 0 0 9.35 8.003c.095.2.033.439-.147.567l-2.158 1.542a13.047 13.047 0 0 0 6.844 6.844l1.54-2.154a.462.462 0 0 1 .573-.149 13.9 13.9 0 0 0 4 1.205c.139.02.322.042.55.064a.5.5 0 0 1 .449.498H21Z"/></svg>
